X:275
T: ACH HERZCHEN SCHOENSTES SCHAETZCHEN
N: E0869
O: Europa, Mitteleuropa, Deutschland, Hessen, Dillkreis, Fleisbach
R: Hochzeits -, Ehestands - Lied
M: 3/4
L: 1/8
K: G
D2 | G3FGG | A3GA2 | B3cdB | A4
AB | c3de2 | d3cB2 | c2B2A2 | B4
AB | c3de2 | d3cB2 | c2B2A2 | G4

